exported-svg/cpu.svg

<svg height="24" viewBox="0 0 24 24" width="24" xmlns="http://www.w3.org/2000/svg"><path d="m3.5 13.5v-4h-2.5c-.27614237 0-.5-.22385763-.5-.5s.22385763-.5.5-.5h2.5v-2.5c0-1.38071187 1.11928813-2.5 2.5-2.5h2.5v-2.5c0-.27614237.22385763-.5.5-.5s.5.22385763.5.5v2.5h5v-2.5c0-.27614237.2238576-.5.5-.5s.5.22385763.5.5v2.5h2.5c1.3807119 0 2.5 1.11928813 2.5 2.5v2.5h2.5c.2761424 0 .5.22385763.5.5s-.2238576.5-.5.5h-2.5v4h2.5c.2761424 0 .5.2238576.5.5s-.2238576.5-.5.5h-2.5v3.5c0 1.3807119-1.1192881 2.5-2.5 2.5h-2.5v2.5c0 .2761424-.2238576.5-.5.5s-.5-.2238576-.5-.5v-2.5h-5v2.5c0 .2761424-.22385763.5-.5.5s-.5-.2238576-.5-.5v-2.5h-2.5c-1.38071187 0-2.5-1.1192881-2.5-2.5v-3.5h-2.5c-.27614237 0-.5-.2238576-.5-.5s.22385763-.5.5-.5zm2.5-9c-.82842712 0-1.5.67157288-1.5 1.5v12c0 .8284271.67157288 1.5 1.5 1.5h12c.8284271 0 1.5-.6715729 1.5-1.5v-12c0-.82842712-.6715729-1.5-1.5-1.5zm2.5 4.5c0-.27614237.22385763-.5.5-.5h6c.2761424 0 .5.22385763.5.5v6c0 .2761424-.2238576.5-.5.5h-6c-.27614237 0-.5-.2238576-.5-.5zm1 .5v5h5v-5z"/></svg>

<?xml version="1.0" encoding="UTF-8"?>
<svg width="24px" height="24px" viewBox="0 0 24 24" version="1.1" xmlns="http://www.w3.org/2000/svg" xmlns:xlink="http://www.w3.org/1999/xlink">
    <!-- Generator: Sketch 55.2 (78181) - https://sketchapp.com -->
    <title>cpu</title>
    <desc>Created with Sketch.</desc>
    <g id="cpu" stroke="none" stroke-width="1" fill="none" fill-rule="evenodd">
        <path d="M3.5,13.5 L3.5,9.5 L1,9.5 C0.723857625,9.5 0.5,9.27614237 0.5,9 C0.5,8.72385763 0.723857625,8.5 1,8.5 L3.5,8.5 L3.5,6 C3.5,4.61928813 4.61928813,3.5 6,3.5 L8.5,3.5 L8.5,1 C8.5,0.723857625 8.72385763,0.5 9,0.5 C9.27614237,0.5 9.5,0.723857625 9.5,1 L9.5,3.5 L14.5,3.5 L14.5,1 C14.5,0.723857625 14.7238576,0.5 15,0.5 C15.2761424,0.5 15.5,0.723857625 15.5,1 L15.5,3.5 L18,3.5 C19.3807119,3.5 20.5,4.61928813 20.5,6 L20.5,8.5 L23,8.5 C23.2761424,8.5 23.5,8.72385763 23.5,9 C23.5,9.27614237 23.2761424,9.5 23,9.5 L20.5,9.5 L20.5,13.5 L23,13.5 C23.2761424,13.5 23.5,13.7238576 23.5,14 C23.5,14.2761424 23.2761424,14.5 23,14.5 L20.5,14.5 L20.5,18 C20.5,19.3807119 19.3807119,20.5 18,20.5 L15.5,20.5 L15.5,23 C15.5,23.2761424 15.2761424,23.5 15,23.5 C14.7238576,23.5 14.5,23.2761424 14.5,23 L14.5,20.5 L9.5,20.5 L9.5,23 C9.5,23.2761424 9.27614237,23.5 9,23.5 C8.72385763,23.5 8.5,23.2761424 8.5,23 L8.5,20.5 L6,20.5 C4.61928813,20.5 3.5,19.3807119 3.5,18 L3.5,14.5 L1,14.5 C0.723857625,14.5 0.5,14.2761424 0.5,14 C0.5,13.7238576 0.723857625,13.5 1,13.5 L3.5,13.5 Z M6,4.5 C5.17157288,4.5 4.5,5.17157288 4.5,6 L4.5,18 C4.5,18.8284271 5.17157288,19.5 6,19.5 L18,19.5 C18.8284271,19.5 19.5,18.8284271 19.5,18 L19.5,6 C19.5,5.17157288 18.8284271,4.5 18,4.5 L6,4.5 Z" id="Combined-Shape" fill="#000000" fill-rule="nonzero"></path>
        <path d="M8.5,9 C8.5,8.72385763 8.72385763,8.5 9,8.5 L15,8.5 C15.2761424,8.5 15.5,8.72385763 15.5,9 L15.5,15 C15.5,15.2761424 15.2761424,15.5 15,15.5 L9,15.5 C8.72385763,15.5 8.5,15.2761424 8.5,15 L8.5,9 Z M9.5,9.5 L9.5,14.5 L14.5,14.5 L14.5,9.5 L9.5,9.5 Z" id="Rectangle-path" fill="#000000" fill-rule="nonzero"></path>
    </g>
</svg>
